X: 8
T: Many A Wild Night
Z: JACKB
S: https://thesession.org/tunes/2669#setting29672
R: polka
M: 2/4
L: 1/8
K: Gmaj
B/c/ |:dg ge | dB BA/B/ | ce ed | Bd GB/c/ |
dg ge | dB BA/B/ | ce ed | G2 G2 :||
|:GD/G/ Bd | cA AG | FD/F/ Ac | BG GF |
GD/G/ Bd | cA AG | Fe ed |G2 G2 :||
